swiss/communes/5260.svg

<?xml version="1.0" encoding="UTF-8" standalone="no"?>
<svg
   xmlns:i="http://ns.adobe.com/AdobeIllustrator/10.0/"
   xmlns:dc="http://purl.org/dc/elements/1.1/"
   xmlns:cc="http://web.resource.org/cc/"
   xmlns:rdf="http://www.w3.org/1999/02/22-rdf-syntax-ns#"
   xmlns:svg="http://www.w3.org/2000/svg"
   xmlns="http://www.w3.org/2000/svg"
   xmlns:xlink="http://www.w3.org/1999/xlink"
   xmlns:sodipodi="http://sodipodi.sourceforge.net/DTD/sodipodi-0.dtd"
   xmlns:inkscape="http://www.inkscape.org/namespaces/inkscape"
   height="763"
   width="603"
   version="1.0"
   id="svg20"
   sodipodi:version="0.32"
   inkscape:version="0.44"
   sodipodi:docname="Novazzano-blason.svg"
   sodipodi:docbase="C:\Documents and Settings\Steve\Bureau\Blason Villages Suisse pour Wikipédia (par Delta-9)\TI">
  <metadata
     id="metadata31">
    <rdf:RDF>
      <cc:Work
         rdf:about="">
        <dc:format>image/svg+xml</dc:format>
        <dc:type
           rdf:resource="http://purl.org/dc/dcmitype/StillImage" />
        <dc:date>07-AUG-2006</dc:date>
        <dc:creator>
          <cc:Agent>
            <dc:title>Jérôme BLUM (wagner51)</dc:title>
          </cc:Agent>
        </dc:creator>
        <cc:license
           rdf:resource="http://creativecommons.org/licenses/GPL/2.0/" />
        <dc:coverage />
        <dc:description>Gabarit pour le Projet:Blasons de WIkipédia</dc:description>
        <dc:subject>
          <rdf:Bag>
            <rdf:li>blason suisse modèle gabarit projet blasons</rdf:li>
          </rdf:Bag>
        </dc:subject>
        <dc:language>fr</dc:language>
        <dc:title>Gabrit d'un blason suisse</dc:title>
      </cc:Work>
      <cc:License
         rdf:about="http://creativecommons.org/licenses/GPL/2.0/">
        <cc:permits
           rdf:resource="http://web.resource.org/cc/Reproduction" />
        <cc:permits
           rdf:resource="http://web.resource.org/cc/Distribution" />
        <cc:requires
           rdf:resource="http://web.resource.org/cc/Notice" />
        <cc:permits
           rdf:resource="http://web.resource.org/cc/DerivativeWorks" />
        <cc:requires
           rdf:resource="http://web.resource.org/cc/ShareAlike" />
        <cc:requires
           rdf:resource="http://web.resource.org/cc/SourceCode" />
      </cc:License>
    </rdf:RDF>
  </metadata>
  <defs
     id="defs29">
    <linearGradient
       id="linearGradient2893">
      <stop
         style="stop-color:#ffffff;stop-opacity:0.3137255;"
         offset="0"
         id="stop2895" />
      <stop
         id="stop2897"
         offset="0.19"
         style="stop-color:#ffffff;stop-opacity:0.25098041;" />
      <stop
         style="stop-color:#6b6b6b;stop-opacity:0.1254902;"
         offset="0.60000002"
         id="stop2901" />
      <stop
         style="stop-color:#000000;stop-opacity:0.1254902;"
         offset="1"
         id="stop2899" />
    </linearGradient>
    <linearGradient
       id="linearGradient2955">
      <stop
         style="stop-color:white;stop-opacity:0;"
         offset="0"
         id="stop2965" />
      <stop
         style="stop-color:black;stop-opacity:0.64583331;"
         offset="1"
         id="stop2959" />
    </linearGradient>
    <radialGradient
       inkscape:collect="always"
       xlink:href="#linearGradient2893"
       id="radialGradient3236"
       gradientUnits="userSpaceOnUse"
       gradientTransform="matrix(1.215027,1.531577e-24,1.464684e-23,1.266667,-839.1924,-490.4894)"
       cx="858.04236"
       cy="579.93323"
       fx="858.04236"
       fy="579.93323"
       r="300" />
    <foreignObject
       requiredExtensions="http://ns.adobe.com/AdobeIllustrator/10.0/"
       x="0"
       y="0"
       width="1"
       height="1"
       id="foreignObject1961">
      <i:pgfRef
         xlink:href="#adobe_illustrator_pgf" />
    </foreignObject>
  </defs>
  <sodipodi:namedview
     inkscape:window-height="966"
     inkscape:window-width="1039"
     inkscape:pageshadow="2"
     inkscape:pageopacity="0.0"
     guidetolerance="10.0"
     gridtolerance="10.0"
     objecttolerance="10.0"
     borderopacity="1.0"
     bordercolor="#666666"
     pagecolor="#ffffff"
     id="base"
     inkscape:zoom="0.96603774"
     inkscape:cx="315.38531"
     inkscape:cy="371.93392"
     inkscape:window-x="17"
     inkscape:window-y="4"
     inkscape:current-layer="layer1"
     showgrid="false" />
  <desc
     id="desc22">Coat of Arms of Canton of Freiburg (Fribourg)</desc>
  <g
     inkscape:groupmode="layer"
     id="layer1"
     inkscape:label="Fond écu">
    <path
       id="path1899"
       d="M 1.5,1.49998 L 1.5,460.3679 C 1.5,626.6785 135.81456,761.5 301.49999,761.5 C 467.18543,761.5 601.5,626.6785 601.5,460.3679 L 601.5,1.49998 L 1.5,1.49998 z "
       style="fill:#e20909;fill-opacity:1" />
  </g>
  <g
     inkscape:groupmode="layer"
     id="layer2"
     inkscape:label="Meubles"
     style="opacity:1"
     sodipodi:insensitive="true">
    <path
       style="fill:white;stroke:black;stroke-width:2.75;stroke-miterlimit:4;stroke-dasharray:none"
       i:knockout="Off"
       d="M 368.84844,371.01299 C 368.84844,371.01299 361.49323,363.66038 345.86634,365.49853 C 330.23945,367.33668 288.73654,382.08876 281.51932,432.60408 C 279.22033,448.69051 301.28336,476.26799 306.33958,481.78374 C 311.3958,487.2995 315.0018,494.1431 313.23395,498.78925 C 310.61992,505.65888 290.98216,533.1218 244.67819,571.12155 C 240.12707,574.85644 234.63995,571.0135 227.67268,576.17777 C 226.95539,576.70891 221.52685,578.62647 216.7375,579.10423 C 211.94815,579.58199 211.46779,584.85301 207.63657,587.7261 C 203.80535,590.59919 198.69576,599.69882 210.03189,600.33801 C 210.03189,600.33801 210.19202,605.92666 218.81389,605.92666 C 227.43575,605.92666 229.67096,598.90211 229.67096,598.90211 C 230.78791,598.90211 235.73868,600.97849 240.20908,595.54996 C 244.67949,590.12142 250.58839,590.91943 251.54522,589.9613 C 252.50205,589.00317 312.49843,522.04603 345.26751,501.18978 C 347.02365,500.07283 329.29955,489.21706 329.29955,471.8132 C 329.29955,454.40935 342.87219,414.65216 370.81417,404.11403 L 369.21555,382.39989 L 368.84844,371.01299 z "
       id="path1966" />
    <path
       style="fill:white;stroke:black;stroke-width:2.75;stroke-miterlimit:4;stroke-dasharray:none"
       i:knockout="Off"
       d="M 297.19048,360.20018 C 297.19048,360.20018 292.33344,365.05852 290.59943,366.61939 C 288.86542,368.18025 287.47639,375.46777 293.20174,372.34343 C 298.92709,369.2191 321.30515,356.20884 334.66299,356.20884 C 348.02083,356.20884 361.72496,356.20884 365.54185,368.35209 L 366.23442,370.77996 L 368.31731,370.77996 L 366.92958,361.23902 L 362.24568,351.87122 L 356.52163,345.97273 L 347.15383,342.15583 L 335.01057,343.02283 L 324.60263,347.01287 L 312.28623,351.52363 L 302.39771,356.20754 L 297.19048,360.20018 z "
       id="path1968" />
    <path
       style="fill:white;stroke:black;stroke-width:2.75;stroke-miterlimit:4;stroke-dasharray:none"
       i:knockout="Off"
       d="M 205.4222,317.75085 C 170.00914,295.56416 171.71711,258.44573 164.89044,231.99302 C 159.66368,211.7369 153.37075,177.8079 143.98472,173.96887 C 135.98902,170.69743 106.86499,188.47491 99.185633,188.47491 C 91.506273,188.47491 91.07928,182.50222 86.386266,182.50222 C 81.693252,182.50222 77.852921,186.76824 75.720561,186.76824 C 73.588202,186.76824 69.320878,194.02191 65.480548,193.59492 C 56.416065,192.58732 59.080864,187.62223 59.080864,187.62223 C 59.080864,187.62223 51.827196,190.60857 48.413858,187.62223 C 42.866858,181.22124 50.974512,179.08888 50.974512,179.08888 C 47.561174,175.24855 74.013892,173.54318 85.10659,173.54318 C 96.199287,173.54318 123.50599,167.1422 141.85236,163.30317 C 160.19872,159.46414 168.73077,163.73016 173.85077,176.95652 C 178.97078,190.18288 193.08627,235.71358 193.1045,235.4402 L 196.43062,241.9258 L 194.90099,274.05831 L 201.5311,305.6818 L 205.4222,317.75085 z "
       id="path1970" />
    <path
       style="fill:white;stroke:black;stroke-width:2.75;stroke-miterlimit:4;stroke-dasharray:none"
       i:knockout="Off"
       d="M 211.39619,125.32946 C 211.39619,125.32946 197.2846,189.07895 193.1032,235.4376 C 190.48917,264.41843 185.37046,300.68416 205.4222,317.74955 C 205.4222,317.74955 209.49165,325.76608 168.30247,301.53685 C 146.54407,288.73618 139.2891,291.29683 132.03673,296.84383 C 124.78437,302.39083 96.197985,327.98957 85.530979,332.25689 C 74.863972,336.52421 68.892584,354.01529 64.198268,359.56229 C 59.503952,365.10929 48.838247,374.06963 53.10557,377.05597 C 57.372894,380.04232 63.772577,376.20329 63.772577,376.20329 C 63.772577,376.20329 66.309799,384.00242 74.012591,373.21695 C 78.278612,367.24295 75.71926,362.97693 79.132598,357.85692 C 82.545935,352.73692 90.225295,354.87058 91.504971,353.16391 C 92.784648,351.45724 124.35737,314.33882 140.57008,314.33882 C 147.39675,314.33882 155.22712,322.18611 172.99549,332.68518 C 191.76754,343.77788 215.23392,355.72456 218.64725,359.1379 C 225.07427,365.19391 246.48509,346.37759 273.68505,342.9252 C 273.68505,342.9252 262.38667,344.56938 250.89562,349.9172 C 250.89562,349.9172 264.77548,367.96676 295.41351,363.48333 C 295.41351,363.48333 329.78772,342.56069 345.47971,344.8024 C 361.17169,347.04412 366.82413,358.25788 366.40235,379.17662 C 365.93109,402.62216 367.98014,455.13315 412.72194,499.87496 C 414.55619,501.7092 412.2611,572.8152 410.8864,576.94323 C 409.51169,581.07126 409.05215,598.50376 408.13438,602.17355 C 407.2166,605.84335 397.58323,609.05491 395.28945,614.10071 C 392.99566,619.14651 376.0227,622.81761 376.0227,630.1572 C 376.0227,637.49678 383.36359,638.41326 391.61965,633.82569 C 391.61965,633.82569 392.07919,637.95502 397.58323,637.95502 C 403.08727,637.95502 404.00504,631.07237 407.67484,627.40387 C 413.63842,621.89853 421.7695,619.56569 422.35401,615.47802 C 422.81355,612.26646 421.89448,609.0536 422.35401,601.71532 C 422.81355,594.37703 426.01339,540.77513 432.29721,515.62161 C 433.67322,510.11627 439.77349,508.19871 435.65848,504.00429 C 434.01039,502.32496 424.06068,492.37134 424.06068,477.44742 C 424.06068,462.52351 429.28614,439.88378 428.78754,427.44502 C 428.28895,415.00625 425.30391,394.60824 419.83111,384.90587 C 419.83111,384.90587 421.07564,383.414 423.0648,386.39774 C 425.05396,389.38148 451.92196,441.87294 494.21246,441.87294 C 536.50296,441.87294 553.91723,400.32838 553.91723,368.98347 C 553.91723,337.63856 531.7761,300.82216 495.20704,300.82216 C 466.34988,300.82216 453.16518,323.95657 453.16518,344.85448 C 453.16518,365.75238 470.07956,381.92083 487.99242,381.92083 C 497.94474,381.92083 513.86454,364.01057 512.37267,362.51739 C 510.88079,361.02422 496.69891,373.71163 487.99242,373.71163 C 476.79819,373.71163 462.6189,360.27829 462.6189,344.35719 C 462.6189,328.43609 478.78865,313.01228 495.20704,313.01228 C 511.62543,313.01228 537.99483,326.19698 537.99483,368.48748 C 537.99483,410.77798 509.13767,421.47493 495.20704,421.47493 C 471.32539,421.47493 455.15564,400.32968 446.44916,383.91129 C 437.74267,367.4929 426.54713,357.79183 425.8012,355.05413 C 425.05526,352.31643 418.19995,327.29701 388.98349,315.74737 C 378.28524,311.5178 371.40259,302.89463 361.12092,297.58717 C 345.69711,289.62531 313.10897,283.15794 294.45148,281.16747 C 287.65865,280.44237 276.53991,255.54401 269.82389,246.83752 C 263.90588,239.16597 252.16227,226.43951 252.16227,208.2793 C 252.16227,193.35278 259.37689,168.97384 259.37689,168.97384 L 259.70494,163.87076 L 226.82911,127.09211 L 214.0688,121.68831 L 211.39619,125.32946 z "
       id="path1972" />
    <path
       style="fill:white;stroke:black;stroke-width:2.75;stroke-miterlimit:4;stroke-dasharray:none"
       i:knockout="Off"
       d="M 357.32615,144.86958 C 359.20856,171.19733 336.93464,171.77533 321.63971,165.26239 C 306.34478,158.74945 294.45017,159.59693 290.48487,160.7308 C 287.79534,161.50017 280.15373,161.87639 275.51539,162.03912 C 278.34682,164.18319 283.19084,165.00724 286.80206,165.82868 C 290.7218,166.72041 302.81819,169.738 311.2565,171.85604 C 323.72521,171.67769 325.18453,176.30692 340.33106,176.30692 C 357.89113,176.30692 368.08689,170.07517 368.08689,157.33048 C 368.08689,144.58579 357.04236,140.90428 357.32615,144.86958 z "
       id="path1974" />
    <path
       style="fill:white;stroke:black;stroke-width:2.75;stroke-miterlimit:4;stroke-dasharray:none"
       i:knockout="Off"
       d="M 319.94086,174.04178 C 319.94086,174.04178 317.10812,184.52132 302.09699,182.25618 C 287.08585,179.98973 263.57912,167.81133 253.94966,167.81133 C 244.32019,167.81133 228.74277,161.05104 228.74277,143.73701 C 228.74277,138.07155 215.99677,125.61065 212.88155,125.61065 C 209.76633,125.61065 189.22902,115.72082 191.92246,99.553681 C 192.48874,96.155965 199.28678,109.75074 218.8282,109.75074 C 219.96078,109.75074 221.66094,100.97005 229.59155,95.023393 C 229.59155,95.023393 227.04261,78.3147 224.20988,75.198174 C 221.37714,72.081648 220.38517,65.144319 221.37714,64.152342 C 222.36912,63.160365 241.20236,70.100298 245.73395,90.775597 C 245.73395,90.775597 257.20808,94.528706 260.74509,95.589679 C 266.40925,97.289839 281.98537,115.98249 287.08455,117.96514 C 292.18373,119.94779 327.02008,130.99362 330.13531,130.71113 C 333.25053,130.42864 339.48228,130.99362 339.48228,136.94158 C 339.48228,142.88953 334.94939,144.3059 329.28523,144.87219 C 323.62106,145.43847 276.8888,146.57235 273.77357,154.78545 C 270.65835,162.99855 280.57161,164.41491 286.80206,165.83128 C 293.03251,167.24765 319.94086,174.04178 319.94086,174.04178 z "
       id="path1976" />
    <path
       i:knockout="Off"
       d="M 270.94344,127.87579 C 269.24328,134.10624 263.58042,134.39004 262.44655,133.53996 C 261.31268,132.68988 257.34867,130.70853 257.34867,130.70853 C 257.34867,130.70853 261.03018,129.85975 263.86292,126.74322 C 265.92368,124.26198 267.12785,125.23052 267.54443,125.60935 C 267.961,125.98817 270.99942,126.67943 270.94344,127.87579 z "
       id="path1978" />
    <path
       style="fill:none;stroke:black;stroke-width:2.75;stroke-linecap:round;stroke-linejoin:round;stroke-miterlimit:4;stroke-dasharray:none"
       i:knockout="Off"
       d="M 249.41025,116.16604 C 249.41025,116.16604 253.97699,114.39558 261.94535,121.05823 C 269.91372,127.72088 277.08928,125.62497 277.08928,125.62497"
       id="path1980" />
    <path
       style="fill:none;stroke:black;stroke-width:2.75;stroke-linecap:round;stroke-linejoin:round;stroke-miterlimit:4;stroke-dasharray:none"
       i:knockout="Off"
       d="M 282.11685,150.2877 C 282.11685,150.2877 290.53694,153.05535 294.48142,155.20723 C 298.6446,157.47889 306.7184,159.62296 316.17994,159.62296 C 318.95539,159.62296 323.49739,161.38821 322.73974,165.55269"
       id="path1982" />
  </g>
  <g
     inkscape:groupmode="layer"
     id="layer3"
     inkscape:label="Reflet final"
     style="display:inline"
     sodipodi:insensitive="true">
    <path
       style="fill:url(#radialGradient3236);fill-opacity:1"
       d="M 1.5,1.5 L 1.5,460.3679 C 1.5,626.67854 135.81454,761.5 301.49993,761.5 C 467.1854,761.5 601.5,626.67854 601.5,460.3679 L 601.5,1.5 L 1.5,1.5 z "
       id="path2346" />
  </g>
  <g
     inkscape:groupmode="layer"
     id="layer4"
     inkscape:label="Contour final"
     style="display:inline"
     sodipodi:insensitive="true">
    <path
       style="fill:none;fill-opacity:1;stroke:#000000;stroke-width:3;stroke-miterlimit:4;stroke-dasharray:none;stroke-opacity:1"
       d="M 1.5,1.5 L 1.5,460.36794 C 1.5,626.67854 135.81454,761.5 301.49993,761.5 C 467.1854,761.5 601.5,626.67854 601.5,460.36794 L 601.5,1.5 L 1.5,1.5 z "
       id="path3239" />
  </g>
</svg>

<svg xmlns="http://www.w3.org/2000/svg" xmlns:xlink="http://www.w3.org/1999/xlink" height="763" width="603" version="1.0"><defs><radialGradient xlink:href="#a" id="b" gradientUnits="userSpaceOnUse" gradientTransform="matrix(1.21503 0 0 1.26667 -839.192 -490.49)" cx="858.042" cy="579.933" fx="858.042" fy="579.933" r="300"/><linearGradient id="a"><stop style="stop-color:#fff;stop-opacity:.3137255" offset="0"/><stop offset=".19" style="stop-color:#fff;stop-opacity:.25098041"/><stop style="stop-color:#6b6b6b;stop-opacity:.1254902" offset=".6"/><stop style="stop-color:#000;stop-opacity:.1254902" offset="1"/></linearGradient></defs><path d="M1.5 1.5v458.868c0 166.31 134.315 301.132 300 301.132s300-134.822 300-301.132V1.5H1.5z" style="fill:#e20909;fill-opacity:1"/><g style="opacity:1"><path style="fill:#fff;stroke:#000;stroke-width:2.75;stroke-miterlimit:4;stroke-dasharray:none" d="M368.848 371.013s-7.355-7.353-22.982-5.514c-15.627 1.838-57.13 16.59-64.347 67.105-2.299 16.087 19.764 43.664 24.82 49.18 5.057 5.516 8.663 12.36 6.895 17.005-2.614 6.87-22.252 34.333-68.556 72.333-4.55 3.734-10.038-.108-17.005 5.056-.718.53-6.146 2.448-10.935 2.926-4.79.478-5.27 5.749-9.101 8.622-3.832 2.873-8.941 11.973 2.395 12.612 0 0 .16 5.589 8.782 5.589s10.857-7.025 10.857-7.025c1.117 0 6.068 2.076 10.538-3.352 4.47-5.429 10.38-4.63 11.336-5.589.957-.958 60.953-67.915 93.723-88.771 1.756-1.117-15.968-11.973-15.968-29.377 0-17.404 13.572-57.16 41.514-67.699l-1.598-21.714-.368-11.387z"/><path style="fill:#fff;stroke:#000;stroke-width:2.75;stroke-miterlimit:4;stroke-dasharray:none" d="M297.19 360.2s-4.857 4.859-6.59 6.42c-1.735 1.56-3.124 8.848 2.602 5.723 5.725-3.124 28.103-16.134 41.461-16.134 13.358 0 27.062 0 30.879 12.143l.692 2.428h2.083l-1.387-9.541-4.684-9.368-5.724-5.898-9.368-3.817-12.143.867-10.408 3.99-12.317 4.51-9.888 4.685-5.208 3.992zM205.422 317.75c-35.413-22.186-33.705-59.304-40.532-85.757-5.226-20.256-11.52-54.185-20.905-58.024-7.996-3.272-37.12 14.506-44.8 14.506-7.679 0-8.106-5.973-12.799-5.973s-8.533 4.266-10.665 4.266c-2.133 0-6.4 7.254-10.24 6.827-9.065-1.008-6.4-5.973-6.4-5.973s-7.254 2.987-10.667 0c-5.547-6.4 2.56-8.533 2.56-8.533-3.413-3.84 23.04-5.546 34.133-5.546 11.092 0 38.399-6.4 56.745-10.24 18.347-3.839 26.879.427 31.999 13.654 5.12 13.226 19.235 58.757 19.254 58.483l3.326 6.486-1.53 32.132 6.63 31.624 3.891 12.069z"/><path style="fill:#fff;stroke:#000;stroke-width:2.75;stroke-miterlimit:4;stroke-dasharray:none" d="M211.396 125.33s-14.111 63.749-18.293 110.108c-2.614 28.98-7.733 65.246 12.32 82.312 0 0 4.069 8.016-37.12-16.213-21.759-12.8-29.014-10.24-36.266-4.693-7.253 5.547-35.839 31.146-46.506 35.413-10.667 4.267-16.638 21.758-21.333 27.305-4.694 5.547-15.36 14.508-11.092 17.494 4.267 2.986 10.667-.853 10.667-.853s2.537 7.8 10.24-2.986c4.266-5.974 1.706-10.24 5.12-15.36 3.413-5.12 11.092-2.986 12.372-4.693 1.28-1.707 32.852-38.825 49.065-38.825 6.827 0 14.657 7.847 32.425 18.346 18.773 11.093 42.239 23.04 45.652 26.453 6.427 6.056 27.838-12.76 55.038-16.213 0 0-11.298 1.644-22.79 6.992 0 0 13.88 18.05 44.519 13.566 0 0 34.374-20.922 50.066-18.68 15.692 2.241 21.344 13.455 20.922 34.374-.47 23.445 1.578 75.956 46.32 120.698 1.834 1.834-.46 72.94-1.836 77.068-1.374 4.128-1.834 21.56-2.752 25.23-.917 3.67-10.55 6.882-12.845 11.928-2.293 5.046-19.266 8.717-19.266 16.056 0 7.34 7.34 8.256 15.597 3.669 0 0 .46 4.129 5.963 4.129 5.504 0 6.422-6.883 10.092-10.551 5.963-5.505 14.094-7.838 14.679-11.926.46-3.212-.46-6.424 0-13.763.46-7.338 3.66-60.94 9.943-86.093 1.376-5.506 7.476-7.423 3.361-11.618-1.648-1.679-11.597-11.633-11.597-26.557 0-14.923 5.225-37.563 4.727-50.002-.5-12.439-3.484-32.837-8.957-42.54 0 0 1.245-1.491 3.234 1.493 1.989 2.983 28.857 55.475 71.147 55.475 42.291 0 59.705-41.545 59.705-72.89 0-31.344-22.14-68.16-58.71-68.16-28.857 0-42.042 23.134-42.042 44.031 0 20.898 16.915 37.067 34.827 37.067 9.953 0 25.873-17.91 24.38-19.404-1.491-1.493-15.673 11.195-24.38 11.195-11.194 0-25.373-13.434-25.373-29.355 0-15.92 16.17-31.345 32.588-31.345s42.788 13.185 42.788 55.475c0 42.291-28.857 52.988-42.788 52.988-23.882 0-40.051-21.145-48.758-37.564-8.706-16.418-19.902-26.12-20.648-28.857-.746-2.738-7.601-27.757-36.818-39.307-10.698-4.23-17.58-12.852-27.862-18.16-15.424-7.962-48.012-14.43-66.67-16.42-6.792-.725-17.911-25.623-24.627-34.33-5.918-7.671-17.662-20.397-17.662-38.558 0-14.926 7.215-39.305 7.215-39.305l.328-5.103-32.876-36.779-12.76-5.404-2.673 3.641z"/><path style="fill:#fff;stroke:#000;stroke-width:2.75;stroke-miterlimit:4;stroke-dasharray:none" d="M357.326 144.87c1.883 26.327-20.391 26.905-35.686 20.392-15.295-6.513-27.19-5.665-31.155-4.531-2.69.77-10.331 1.145-14.97 1.308 2.832 2.144 7.676 2.968 11.287 3.79 3.92.891 16.016 3.909 24.454 6.027 12.47-.178 13.929 4.45 29.075 4.45 17.56 0 27.756-6.23 27.756-18.976 0-12.744-11.045-16.426-10.76-12.46z"/><path style="fill:#fff;stroke:#000;stroke-width:2.75;stroke-miterlimit:4;stroke-dasharray:none" d="M319.94 174.042s-2.832 10.48-17.843 8.214-38.518-14.445-48.147-14.445c-9.63 0-25.207-6.76-25.207-24.074 0-5.665-12.746-18.126-15.861-18.126-3.116 0-23.653-9.89-20.96-26.057.567-3.398 7.365 10.197 26.906 10.197 1.133 0 2.833-8.781 10.764-14.728 0 0-2.55-16.708-5.382-19.825-2.833-3.116-3.825-10.054-2.833-11.046.992-.992 19.825 5.948 24.357 26.624 0 0 11.474 3.753 15.011 4.814 5.664 1.7 21.24 20.392 26.34 22.375 5.099 1.983 39.935 13.029 43.05 12.746 3.116-.282 9.347.283 9.347 6.23 0 5.949-4.533 7.365-10.197 7.931-5.664.566-52.396 1.7-55.511 9.913-3.116 8.214 6.798 9.63 13.028 11.046 6.23 1.417 33.139 8.21 33.139 8.21z"/><path d="M270.943 127.876c-1.7 6.23-7.363 6.514-8.496 5.664-1.134-.85-5.098-2.831-5.098-2.831s3.681-.85 6.514-3.966c2.06-2.481 3.265-1.512 3.681-1.134.417.38 3.455 1.07 3.4 2.267z"/><path style="fill:none;stroke:#000;stroke-width:2.75;stroke-linecap:round;stroke-linejoin:round;stroke-miterlimit:4;stroke-dasharray:none" d="M249.41 116.166s4.567-1.77 12.535 4.892c7.969 6.663 15.144 4.567 15.144 4.567M282.117 150.288s8.42 2.767 12.364 4.92c4.164 2.27 12.237 4.415 21.699 4.415 2.775 0 7.317 1.765 6.56 5.93"/></g><g style="display:inline"><path style="fill:url(#b);fill-opacity:1" d="M1.5 1.5v458.868c0 166.31 134.315 301.132 300 301.132s300-134.821 300-301.132V1.5H1.5z"/></g><g style="display:inline"><path style="fill:none;fill-opacity:1;stroke:#000;stroke-width:3;stroke-miterlimit:4;stroke-dasharray:none;stroke-opacity:1" d="M1.5 1.5v458.868c0 166.31 134.315 301.132 300 301.132s300-134.821 300-301.132V1.5H1.5z"/></g></svg>
